X: 10071
Q: "Very Slow"
M: C
L: 1/8
K: D
|:\
f2 e>d d>efe | d<BB>A A2z2 :|
|:\
f2 f>e f>g a>f | e2 e>d e>fgb |\
a<f e>d d>ef>e | d<B B>A A2 z2 :|


